X: 42535
T: Whelan's
R: jig
M: 6/8
K: Edorian
|:eBG BAF|FEB AFD|E2B BAF|d2F FED|
eBG BAF|FEB AFA|B/c/dB BAF|dAF FGA:|
|:BAB e2e|fed e2d|BAB g2e|fdB AGA|
BAB ede|fed e2 f|gbg faf|1 edB AGA:|2 edB AFD||

